Origami/48x48/apps/stride.svg

<svg width="48" height="48" version="1.1" viewBox="0 0 48 48" xmlns="http://www.w3.org/2000/svg">
 <path d="m15.579682 7.9999997c-0.853204 8.46e-5 -1.54484 0.6845448-1.544926 1.5288951 0 6.9372882-1.294 11.563787-2.62215 13.590106-0.752589 1.148202-1.327572 1.755394-2.2329012 2.185842-0.9053282 0.430447-2.2957957 0.697259-4.6347787 0.697259-0.8532042 8.5e-5 -1.5448414 0.684546-1.5449262 1.528896v12.940107c8.54e-5 0.84435 0.6917224 1.528811 1.5449262 1.528895 8.4246929 0 16.069857-3.692002 20.260561-10.085631 4.115417-6.278766 5.194513-13.895748 5.194513-22.385474-8.6e-5 -0.8443507-0.691723-1.528811-1.544927-1.5288951z" style="fill-rule:evenodd;opacity:.2"/>
 <path d="m15.579682 7c-0.853204 8.46e-5 -1.54484 0.6845448-1.544926 1.5288951 0 6.9372879-1.294 11.563787-2.62215 13.590106-0.752589 1.148202-1.327572 1.755394-2.2329012 2.185842-0.9053282 0.430447-2.2957957 0.697259-4.6347787 0.697259-0.8532042 8.5e-5 -1.5448414 0.684546-1.5449262 1.528896v12.940107c8.54e-5 0.84435 0.6917224 1.528811 1.5449262 1.528895 8.4246929 0 16.069857-3.692002 20.260561-10.085631 4.115417-6.278766 5.194513-13.895748 5.194513-22.385474-8.6e-5 -0.8443507-0.691723-1.528811-1.544927-1.5288951z" style="fill-rule:evenodd;fill:#115ccc"/>
 <path d="m15.580078 7c-0.853204 8.46e-5 -1.544836 0.6849466-1.544922 1.5292969 0 6.9372881-1.294897 11.563525-2.623047 13.589844-0.752589 1.148202-1.327092 1.755099-2.2324215 2.185547-0.9053282 0.430447-2.2957826 0.697265-4.6347656 0.697265-0.8532042 8.5e-5 -1.5448371 0.684947-1.5449219 1.529297v1c8.48e-5 -0.84435 0.6917177-1.529212 1.5449219-1.529297 2.338983 0 3.7294374-0.266818 4.6347656-0.697265 0.9053295-0.430448 1.4798325-1.037345 2.2324215-2.185547 1.32815-2.026319 2.623047-6.652556 2.623047-13.589844 8.6e-5 -0.8443503 0.691718-1.5292123 1.544922-1.5292969h12.875c0.802551 7.91e-5 1.453736 0.6081852 1.529297 1.3828125 0.002567-0.2863744 0.015625-0.5651086 0.015625-0.8535156-8.6e-5 -0.8443507-0.691718-1.5292128-1.544922-1.5292969h-12.875z" style="fill-rule:evenodd;fill:#ffffff;opacity:.1"/>
 <path d="m15.560691 7.9999997a1.5613757 1.5711343 0 0 0 -1.404183 2.2567453l14.868177 30.858045a1.5613757 1.5711343 0 0 0 1.405707 0.88521h13.009655a1.5613757 1.5711343 0 0 0 1.404182 -2.255212l-14.868176-30.859579a1.5613757 1.5711343 0 0 0 -1.404183 -0.885209h-13.011179z" style="opacity:.2"/>
 <path d="m15.560691 7a1.5613757 1.5711343 0 0 0 -1.404183 2.2567458l14.868177 30.858044a1.5613757 1.5711343 0 0 0 1.405707 0.88521h13.009655a1.5613757 1.5711343 0 0 0 1.404182 -2.255212l-14.868176-30.859579a1.5613757 1.5711343 0 0 0 -1.404183 -0.885209h-13.011179z" style="fill:#3387f5"/>
 <path d="m15.560547 7a1.5613757 1.5711343 0 0 0 -1.478516 2.0742188 1.5613757 1.5711343 0 0 1 1.478516 -1.0742188h13.011719a1.5613757 1.5711343 0 0 1 1.404296 0.8847656l14.867188 30.859375a1.5613757 1.5711343 0 0 1 0.074219 0.18164 1.5613757 1.5711343 0 0 0 -0.074219 -1.18164l-14.867188-30.859375a1.5613757 1.5711343 0 0 0 -1.404296 -0.8847656h-13.011719z" style="fill:#ffffff;opacity:.2"/>
</svg>

<svg xmlns="http://www.w3.org/2000/svg" width="48" height="48" version="1.1" viewBox="0 0 48 48">
 <path d="m 15.579682,7.9999997 c -0.853204,8.46e-5 -1.54484,0.6845448 -1.544926,1.5288951 0,6.9372882 -1.294,11.5637872 -2.62215,13.5901062 -0.752589,1.148202 -1.327572,1.755394 -2.2329012,2.185842 -0.9053282,0.430447 -2.2957957,0.697259 -4.6347787,0.697259 -0.8532042,8.5e-5 -1.5448414,0.684546 -1.5449262,1.528896 l 0,12.940107 C 3.0000853,41.315455 3.6917223,41.999916 4.5449261,42 12.969619,42 20.614783,38.307998 24.805487,31.914369 28.920904,25.635603 30,18.018621 30,9.5288948 29.999914,8.6845441 29.308277,8.0000838 28.455073,7.9999997 Z" style="opacity:0.2;fill-rule:evenodd"/>
 <path style="fill:#115ccc;fill-rule:evenodd" d="m 15.579682,7 c -0.853204,8.46e-5 -1.54484,0.6845448 -1.544926,1.5288951 0,6.9372879 -1.294,11.5637869 -2.62215,13.5901059 -0.752589,1.148202 -1.327572,1.755394 -2.2329012,2.185842 -0.9053282,0.430447 -2.2957957,0.697259 -4.6347787,0.697259 -0.8532042,8.5e-5 -1.5448414,0.684546 -1.5449262,1.528896 l 0,12.940107 C 3.0000853,40.315455 3.6917223,40.999916 4.5449261,41 12.969619,41 20.614783,37.307998 24.805487,30.914369 28.920904,24.635603 30,17.018621 30,8.5288951 29.999914,7.6845444 29.308277,7.0000841 28.455073,7 Z"/>
 <path style="opacity:0.1;fill:#ffffff;fill-rule:evenodd" d="M 15.580078 7 C 14.726874 7.0000846 14.035242 7.6849466 14.035156 8.5292969 C 14.035156 15.466585 12.740259 20.092822 11.412109 22.119141 C 10.65952 23.267343 10.085017 23.87424 9.1796875 24.304688 C 8.2743593 24.735135 6.8839049 25.001953 4.5449219 25.001953 C 3.6917177 25.002038 3.0000848 25.6869 3 26.53125 L 3 27.53125 C 3.0000848 26.6869 3.6917177 26.002038 4.5449219 26.001953 C 6.8839049 26.001953 8.2743593 25.735135 9.1796875 25.304688 C 10.085017 24.87424 10.65952 24.267343 11.412109 23.119141 C 12.740259 21.092822 14.035156 16.466585 14.035156 9.5292969 C 14.035242 8.6849466 14.726874 8.0000846 15.580078 8 L 28.455078 8 C 29.257629 8.0000791 29.908814 8.6081852 29.984375 9.3828125 C 29.986942 9.0964381 30 8.8177039 30 8.5292969 C 29.999914 7.6849462 29.308282 7.0000841 28.455078 7 L 15.580078 7 z"/>
 <path d="M 15.560691,7.9999997 A 1.5613757,1.5711343 0 0 0 14.156508,10.256745 L 29.024685,41.11479 A 1.5613757,1.5711343 0 0 0 30.430392,42 l 13.009655,0 a 1.5613757,1.5711343 0 0 0 1.404182,-2.255212 L 29.976053,8.8852087 A 1.5613757,1.5711343 0 0 0 28.57187,7.9999997 l -13.011179,0 z" style="opacity:0.2"/>
 <path style="fill:#3387f5" d="M 15.560691,7 A 1.5613757,1.5711343 0 0 0 14.156508,9.2567458 L 29.024685,40.11479 A 1.5613757,1.5711343 0 0 0 30.430392,41 l 13.009655,0 a 1.5613757,1.5711343 0 0 0 1.404182,-2.255212 L 29.976053,7.885209 A 1.5613757,1.5711343 0 0 0 28.57187,7 L 15.560691,7 Z"/>
 <path style="opacity:0.2;fill:#ffffff" d="M 15.560547 7 A 1.5613757 1.5711343 0 0 0 14.082031 9.0742188 A 1.5613757 1.5711343 0 0 1 15.560547 8 L 28.572266 8 A 1.5613757 1.5711343 0 0 1 29.976562 8.8847656 L 44.84375 39.744141 A 1.5613757 1.5711343 0 0 1 44.917969 39.925781 A 1.5613757 1.5711343 0 0 0 44.84375 38.744141 L 29.976562 7.8847656 A 1.5613757 1.5711343 0 0 0 28.572266 7 L 15.560547 7 z"/>
</svg>
